gnome/icons/Varda/apps/scalable/showfoto.svg

<?xml version="1.0" encoding="UTF-8" standalone="no"?>
<svg
   xmlns:dc="http://purl.org/dc/elements/1.1/"
   xmlns:cc="http://creativecommons.org/ns#"
   xmlns:rdf="http://www.w3.org/1999/02/22-rdf-syntax-ns#"
   xmlns:svg="http://www.w3.org/2000/svg"
   xmlns="http://www.w3.org/2000/svg"
   xmlns:sodipodi="http://sodipodi.sourceforge.net/DTD/sodipodi-0.dtd"
   xmlns:inkscape="http://www.inkscape.org/namespaces/inkscape"
   width="64px"
   height="64px"
   viewBox="0 0 64 64"
   version="1.1"
   id="svg39"
   sodipodi:docname="org.gnome.Photos.svg"
   inkscape:version="1.0.2 (e86c870879, 2021-01-15)">
  <metadata
     id="metadata45">
    <rdf:RDF>
      <cc:Work
         rdf:about="">
        <dc:format>image/svg+xml</dc:format>
        <dc:type
           rdf:resource="http://purl.org/dc/dcmitype/StillImage" />
      </cc:Work>
    </rdf:RDF>
  </metadata>
  <defs
     id="defs43" />
  <sodipodi:namedview
     pagecolor="#ffffff"
     bordercolor="#666666"
     borderopacity="1"
     objecttolerance="10"
     gridtolerance="10"
     guidetolerance="10"
     inkscape:pageopacity="0"
     inkscape:pageshadow="2"
     inkscape:window-width="2560"
     inkscape:window-height="1403"
     id="namedview41"
     showgrid="false"
     inkscape:zoom="15.75"
     inkscape:cx="32"
     inkscape:cy="32"
     inkscape:window-x="0"
     inkscape:window-y="0"
     inkscape:window-maximized="1"
     inkscape:current-layer="surface1" />
  <g
     id="surface1">
    <path
       style="fill:#d0ebee;fill-opacity:1;fill-rule:nonzero;stroke:none"
       d="m 5.292969,3.144531 h 52.914062 c 1.460938,0 2.648438,1.1875 2.648438,2.648438 V 48.125 c 0,1.460938 -1.1875,2.644531 -2.648438,2.644531 H 5.292969 c -1.460938,0 -2.648438,-1.183593 -2.648438,-2.644531 V 5.792969 c 0,-1.460938 1.1875,-2.648438 2.648438,-2.648438 z m 0,0"
       id="path6" />
    <path
       style="fill:#733447;fill-opacity:1;fill-rule:nonzero;stroke:none"
       d="m 6.613281,5.792969 h 50.273438 c 0.730469,0 1.320312,0.589843 1.320312,1.320312 v 39.6875 c 0,0.730469 -0.589843,1.324219 -1.320312,1.324219 H 6.613281 c -0.730469,0 -1.320312,-0.59375 -1.320312,-1.324219 v -39.6875 c 0,-0.730469 0.589843,-1.320312 1.320312,-1.320312 z m 0,0"
       id="path8" />
    <path
       style="fill:#0c0e11;fill-opacity:1;fill-rule:nonzero;stroke:none"
       d="m 18.386719,20.792969 c -0.40625,0.0039 -0.800781,0.167969 -1.085938,0.460937 L 5.292969,33.261719 v 13.539062 c 0,0.734375 0.589843,1.324219 1.320312,1.324219 h 50.273438 c 0.730469,0 1.320312,-0.589844 1.320312,-1.324219 V 35.007812 l -10.1875,-9.054687 c -0.652343,-0.582031 -1.652343,-0.523437 -2.230469,0.136719 L 35.792969,37.519531 19.523438,21.253906 C 19.226562,20.953125 18.8125,20.785156 18.386719,20.792969 Z m 0,0"
       id="path10" />
    <path
       style="fill:#d0ebee;fill-opacity:1;fill-rule:nonzero;stroke:none"
       d="m 18.386719,20.792969 c -0.40625,0.0039 -0.800781,0.167969 -1.085938,0.460937 l -6.195312,6.1875 1.753906,2.066406 c 0.789063,0.792969 3.09375,0.839844 5.550781,-0.792968 1.574219,-1.5625 3.460938,-1.421875 4.757813,0 1.847656,1.710937 3.519531,1.585937 5.402343,1.585937 L 19.523438,21.253906 C 19.226562,20.953125 18.8125,20.785156 18.386719,20.792969 Z m 28.5625,4.761719 c -0.429688,0 -0.855469,0.1875 -1.160157,0.535156 l -3.683593,4.210937 h 0.109375 c 0.277344,0.601563 0.394531,2.777344 1.582031,1.585938 2.035156,-2.03125 2.382813,-1.191407 3.175781,-0.398438 1.191406,1.191407 1.984375,2.378907 3.171875,1.988281 1.988281,-0.796874 2.335938,-2.757812 1.449219,-4.347656 l -3.574219,-3.175781 c -0.304687,-0.273437 -0.6875,-0.40625 -1.070312,-0.398437 z m 0,0"
       id="path12" />
    <path
       style="fill:#d0ebee;fill-opacity:1;fill-rule:nonzero;stroke:none"
       d="m 46.964844,9.761719 c -1.609375,0 -3.023438,0.8125 -3.851563,2.050781 0.285157,-0.04297 0.578125,-0.06641 0.875,-0.06641 3.113281,0 5.621094,2.507812 5.621094,5.621094 0,0.296874 -0.02344,0.589843 -0.06641,0.875 C 50.78125,17.410156 51.59375,16 51.59375,14.390625 c 0,-2.566406 -2.066406,-4.628906 -4.628906,-4.628906 z m 0,0"
       id="path14" />
    <path
       style="fill:#2e3436;fill-opacity:0.99607843;fill-rule:nonzero;stroke:none"
       d="m 34.394531,38.203125 h 3.308594 c 0.367187,0 0.660156,0.296875 0.660156,0.660156 v 0.664063 c 0,0.363281 -0.292969,0.660156 -0.660156,0.660156 h -3.308594 c -0.363281,0 -0.660156,-0.296875 -0.660156,-0.660156 v -0.664063 c 0,-0.363281 0.296875,-0.660156 0.660156,-0.660156 z m 0,0"
       id="path16" />
    <path
       style="fill:#2e3436;fill-opacity:1;fill-rule:nonzero;stroke:none"
       d="m 42.996094,36.21875 c -0.234375,0 -0.449219,0.121094 -0.570313,0.320312 l -1.984375,3.308594 c -0.261718,0.441406 0.05469,1 0.570313,1 H 51.59375 c 0.515625,0 0.832031,-0.558594 0.566406,-1 L 50.175781,36.539062 C 50.058594,36.339844 49.84375,36.21875 49.609375,36.21875 Z m 0,0"
       id="path18" />
    <path
       style="fill:#2e3436;fill-opacity:0.99607843;fill-rule:nonzero;stroke:none"
       d="m 33,38.863281 h 26.605469 c 0.6875,0 1.25,0.5625 1.25,1.25 v 19.992188 c 0,0.6875 -0.5625,1.25 -1.25,1.25 H 33 c -0.691406,0 -1.25,-0.5625 -1.25,-1.25 V 40.113281 c 0,-0.6875 0.558594,-1.25 1.25,-1.25 z m 0,0"
       id="path20" />
    <path
       style="fill:#257b76;fill-opacity:1;fill-rule:nonzero;stroke:none"
       d="M 31.75,44.15625 H 60.855469 V 56.0625 H 31.75 Z m 0,0"
       id="path22" />
    <path
       style="fill:#7885ca;fill-opacity:0.995763;fill-rule:nonzero;stroke:none"
       d="m 46.300781,42.171875 c 4.386719,0 7.9375,3.554687 7.9375,7.9375 0,4.382813 -3.550781,7.9375 -7.9375,7.9375 -4.382812,0 -7.9375,-3.554687 -7.9375,-7.9375 0,-4.382813 3.554688,-7.9375 7.9375,-7.9375 z m 0,0"
       id="path24" />
    <path
       style="fill:#d0ebee;fill-opacity:0.99607843;fill-rule:nonzero;stroke:none"
       d="m 46.300781,42.171875 c 4.386719,0 7.9375,3.554687 7.9375,7.9375 0,4.382813 -3.550781,7.9375 -7.9375,7.9375 -4.382812,0 -7.9375,-3.554687 -7.9375,-7.9375 0,-4.382813 3.554688,-7.9375 7.9375,-7.9375 z m 0,0"
       id="path26" />
    <path
       style="fill:#2e3436;fill-opacity:0.99607843;fill-rule:nonzero;stroke:none"
       d="m 46.300781,43.496094 c 3.65625,0 6.617188,2.960937 6.617188,6.613281 0,3.652344 -2.960938,6.613281 -6.617188,6.613281 -3.652343,0 -6.613281,-2.960937 -6.613281,-6.613281 0,-3.652344 2.960938,-6.613281 6.613281,-6.613281 z m 0,0"
       id="path28" />
    <path
       style="fill:#0c0e11;fill-opacity:0.99607843;fill-rule:nonzero;stroke:none"
       d="m 46.300781,46.140625 c 2.191407,0 3.96875,1.777344 3.96875,3.96875 0,2.191406 -1.777343,3.96875 -3.96875,3.96875 -2.191406,0 -3.96875,-1.777344 -3.96875,-3.96875 0,-2.191406 1.777344,-3.96875 3.96875,-3.96875 z m 0,0"
       id="path30" />
    <path
       style="fill:#0c0e11;fill-opacity:0.99607843;fill-rule:nonzero;stroke:none"
       d="m 54.570312,40.1875 h 3.308594 c 0.179688,0 0.328125,0.148438 0.328125,0.332031 v 0.660157 c 0,0.183593 -0.148437,0.332031 -0.328125,0.332031 h -3.308594 c -0.183593,0 -0.332031,-0.148438 -0.332031,-0.332031 v -0.660157 c 0,-0.183593 0.148438,-0.332031 0.332031,-0.332031 z m 0,0"
       id="path32" />
    <path
       style="fill:#d0ebee;fill-opacity:0.99607843;fill-rule:nonzero;stroke:none"
       d="m 44.648438,47.464844 c 0.546874,0 0.992187,0.441406 0.992187,0.992187 0,0.546875 -0.445313,0.992188 -0.992187,0.992188 -0.546876,0 -0.992188,-0.445313 -0.992188,-0.992188 0,-0.550781 0.445312,-0.992187 0.992188,-0.992187 z m 0,0"
       id="path34" />
    <path
       style="fill:#bdbdbd;fill-opacity:0.995763;fill-rule:nonzero;stroke:none"
       d="m 54.734375,40.519531 h 0.167969 c 0.08984,0 0.164062,0.07422 0.164062,0.164063 v 0.332031 c 0,0.08984 -0.07422,0.164063 -0.164062,0.164063 h -0.167969 c -0.08984,0 -0.164063,-0.07422 -0.164063,-0.164063 v -0.332031 c 0,-0.08984 0.07422,-0.164063 0.164063,-0.164063 z m 0,0"
       id="path36" />
  </g>
</svg>

<?xml version="1.0" encoding="UTF-8"?>
<svg xmlns="http://www.w3.org/2000/svg" xmlns:xlink="http://www.w3.org/1999/xlink" width="64px" height="64px" viewBox="0 0 64 64" version="1.1">
<g id="surface1">
<path style=" stroke:none;fill-rule:nonzero;fill:rgb(61.960787%,61.960787%,61.960787%);fill-opacity:1;" d="M 5.292969 5.792969 L 58.207031 5.792969 C 59.667969 5.792969 60.855469 6.976562 60.855469 8.4375 L 60.855469 50.769531 C 60.855469 52.230469 59.667969 53.417969 58.207031 53.417969 L 5.292969 53.417969 C 3.832031 53.417969 2.644531 52.230469 2.644531 50.769531 L 2.644531 8.4375 C 2.644531 6.976562 3.832031 5.792969 5.292969 5.792969 Z M 5.292969 5.792969 "/>
<path style=" stroke:none;fill-rule:nonzero;fill:rgb(74.117649%,74.117649%,74.117649%);fill-opacity:1;" d="M 5.292969 4.46875 L 58.207031 4.46875 C 59.667969 4.46875 60.855469 5.652344 60.855469 7.113281 L 60.855469 49.449219 C 60.855469 50.910156 59.667969 52.09375 58.207031 52.09375 L 5.292969 52.09375 C 3.832031 52.09375 2.644531 50.910156 2.644531 49.449219 L 2.644531 7.113281 C 2.644531 5.652344 3.832031 4.46875 5.292969 4.46875 Z M 5.292969 4.46875 "/>
<path style=" stroke:none;fill-rule:nonzero;fill:rgb(93.333334%,93.333334%,93.333334%);fill-opacity:1;" d="M 5.292969 3.144531 L 58.207031 3.144531 C 59.667969 3.144531 60.855469 4.332031 60.855469 5.792969 L 60.855469 48.125 C 60.855469 49.585938 59.667969 50.769531 58.207031 50.769531 L 5.292969 50.769531 C 3.832031 50.769531 2.644531 49.585938 2.644531 48.125 L 2.644531 5.792969 C 2.644531 4.332031 3.832031 3.144531 5.292969 3.144531 Z M 5.292969 3.144531 "/>
<path style=" stroke:none;fill-rule:nonzero;fill:rgb(95.686275%,56.078434%,69.411767%);fill-opacity:1;" d="M 6.613281 5.792969 L 56.886719 5.792969 C 57.617188 5.792969 58.207031 6.382812 58.207031 7.113281 L 58.207031 46.800781 C 58.207031 47.53125 57.617188 48.125 56.886719 48.125 L 6.613281 48.125 C 5.882812 48.125 5.292969 47.53125 5.292969 46.800781 L 5.292969 7.113281 C 5.292969 6.382812 5.882812 5.792969 6.613281 5.792969 Z M 6.613281 5.792969 "/>
<path style=" stroke:none;fill-rule:nonzero;fill:rgb(25.882354%,25.882354%,25.882354%);fill-opacity:1;" d="M 18.386719 20.792969 C 17.980469 20.796875 17.585938 20.960938 17.300781 21.253906 L 5.292969 33.261719 L 5.292969 46.800781 C 5.292969 47.535156 5.882812 48.125 6.613281 48.125 L 56.886719 48.125 C 57.617188 48.125 58.207031 47.535156 58.207031 46.800781 L 58.207031 35.007812 L 48.019531 25.953125 C 47.367188 25.371094 46.367188 25.429688 45.789062 26.089844 L 35.792969 37.519531 L 19.523438 21.253906 C 19.226562 20.953125 18.8125 20.785156 18.386719 20.792969 Z M 18.386719 20.792969 "/>
<path style=" stroke:none;fill-rule:nonzero;fill:rgb(98.823529%,89.411765%,92.54902%);fill-opacity:1;" d="M 18.386719 20.792969 C 17.980469 20.796875 17.585938 20.960938 17.300781 21.253906 L 11.105469 27.441406 L 12.859375 29.507812 C 13.648438 30.300781 15.953125 30.347656 18.410156 28.714844 C 19.984375 27.152344 21.871094 27.292969 23.167969 28.714844 C 25.015625 30.425781 26.6875 30.300781 28.570312 30.300781 L 19.523438 21.253906 C 19.226562 20.953125 18.8125 20.785156 18.386719 20.792969 Z M 46.949219 25.554688 C 46.519531 25.554688 46.09375 25.742188 45.789062 26.089844 L 42.105469 30.300781 L 42.214844 30.300781 C 42.492188 30.902344 42.609375 33.078125 43.796875 31.886719 C 45.832031 29.855469 46.179688 30.695312 46.972656 31.488281 C 48.164062 32.679688 48.957031 33.867188 50.144531 33.476562 C 52.132812 32.679688 52.480469 30.71875 51.59375 29.128906 L 48.019531 25.953125 C 47.714844 25.679688 47.332031 25.546875 46.949219 25.554688 Z M 46.949219 25.554688 "/>
<path style=" stroke:none;fill-rule:nonzero;fill:rgb(97.254902%,73.333335%,81.568629%);fill-opacity:1;" d="M 46.964844 9.761719 C 45.355469 9.761719 43.941406 10.574219 43.113281 11.8125 C 43.398438 11.769531 43.691406 11.746094 43.988281 11.746094 C 47.101562 11.746094 49.609375 14.253906 49.609375 17.367188 C 49.609375 17.664062 49.585938 17.957031 49.542969 18.242188 C 50.78125 17.410156 51.59375 16 51.59375 14.390625 C 51.59375 11.824219 49.527344 9.761719 46.964844 9.761719 Z M 46.964844 9.761719 "/>
<path style=" stroke:none;fill-rule:nonzero;fill:rgb(45.882353%,45.882353%,45.882353%);fill-opacity:0.995763;" d="M 34.394531 38.203125 L 37.703125 38.203125 C 38.070312 38.203125 38.363281 38.5 38.363281 38.863281 L 38.363281 39.527344 C 38.363281 39.890625 38.070312 40.1875 37.703125 40.1875 L 34.394531 40.1875 C 34.03125 40.1875 33.734375 39.890625 33.734375 39.527344 L 33.734375 38.863281 C 33.734375 38.5 34.03125 38.203125 34.394531 38.203125 Z M 34.394531 38.203125 "/>
<path style=" stroke:none;fill-rule:nonzero;fill:rgb(45.882353%,45.882353%,45.882353%);fill-opacity:1;" d="M 42.996094 36.21875 C 42.761719 36.21875 42.546875 36.339844 42.425781 36.539062 L 40.441406 39.847656 C 40.179688 40.289062 40.496094 40.847656 41.011719 40.847656 L 51.59375 40.847656 C 52.109375 40.847656 52.425781 40.289062 52.160156 39.847656 L 50.175781 36.539062 C 50.058594 36.339844 49.84375 36.21875 49.609375 36.21875 Z M 42.996094 36.21875 "/>
<path style=" stroke:none;fill-rule:nonzero;fill:rgb(74.117649%,74.117649%,74.117649%);fill-opacity:0.995763;" d="M 33 38.863281 L 59.605469 38.863281 C 60.292969 38.863281 60.855469 39.425781 60.855469 40.113281 L 60.855469 60.105469 C 60.855469 60.792969 60.292969 61.355469 59.605469 61.355469 L 33 61.355469 C 32.308594 61.355469 31.75 60.792969 31.75 60.105469 L 31.75 40.113281 C 31.75 39.425781 32.308594 38.863281 33 38.863281 Z M 33 38.863281 "/>
<path style=" stroke:none;fill-rule:nonzero;fill:rgb(100%,43.921569%,26.274511%);fill-opacity:1;" d="M 31.75 44.15625 L 60.855469 44.15625 L 60.855469 56.0625 L 31.75 56.0625 Z M 31.75 44.15625 "/>
<path style=" stroke:none;fill-rule:nonzero;fill:rgb(47.450981%,52.549022%,79.607844%);fill-opacity:0.995763;" d="M 46.300781 42.171875 C 50.6875 42.171875 54.238281 45.726562 54.238281 50.109375 C 54.238281 54.492188 50.6875 58.046875 46.300781 58.046875 C 41.917969 58.046875 38.363281 54.492188 38.363281 50.109375 C 38.363281 45.726562 41.917969 42.171875 46.300781 42.171875 Z M 46.300781 42.171875 "/>
<path style=" stroke:none;fill-rule:nonzero;fill:rgb(87.843138%,87.843138%,87.843138%);fill-opacity:0.995763;" d="M 46.300781 42.171875 C 50.6875 42.171875 54.238281 45.726562 54.238281 50.109375 C 54.238281 54.492188 50.6875 58.046875 46.300781 58.046875 C 41.917969 58.046875 38.363281 54.492188 38.363281 50.109375 C 38.363281 45.726562 41.917969 42.171875 46.300781 42.171875 Z M 46.300781 42.171875 "/>
<path style=" stroke:none;fill-rule:nonzero;fill:rgb(38.039216%,38.039216%,38.039216%);fill-opacity:0.995763;" d="M 46.300781 43.496094 C 49.957031 43.496094 52.917969 46.457031 52.917969 50.109375 C 52.917969 53.761719 49.957031 56.722656 46.300781 56.722656 C 42.648438 56.722656 39.6875 53.761719 39.6875 50.109375 C 39.6875 46.457031 42.648438 43.496094 46.300781 43.496094 Z M 46.300781 43.496094 "/>
<path style=" stroke:none;fill-rule:nonzero;fill:rgb(25.882354%,25.882354%,25.882354%);fill-opacity:0.995763;" d="M 46.300781 46.140625 C 48.492188 46.140625 50.269531 47.917969 50.269531 50.109375 C 50.269531 52.300781 48.492188 54.078125 46.300781 54.078125 C 44.109375 54.078125 42.332031 52.300781 42.332031 50.109375 C 42.332031 47.917969 44.109375 46.140625 46.300781 46.140625 Z M 46.300781 46.140625 "/>
<path style=" stroke:none;fill-rule:nonzero;fill:rgb(25.882354%,25.882354%,25.882354%);fill-opacity:0.995763;" d="M 54.570312 40.1875 L 57.878906 40.1875 C 58.058594 40.1875 58.207031 40.335938 58.207031 40.519531 L 58.207031 41.179688 C 58.207031 41.363281 58.058594 41.511719 57.878906 41.511719 L 54.570312 41.511719 C 54.386719 41.511719 54.238281 41.363281 54.238281 41.179688 L 54.238281 40.519531 C 54.238281 40.335938 54.386719 40.1875 54.570312 40.1875 Z M 54.570312 40.1875 "/>
<path style=" stroke:none;fill-rule:nonzero;fill:rgb(74.117649%,74.117649%,74.117649%);fill-opacity:0.995763;" d="M 44.648438 47.464844 C 45.195312 47.464844 45.640625 47.90625 45.640625 48.457031 C 45.640625 49.003906 45.195312 49.449219 44.648438 49.449219 C 44.101562 49.449219 43.65625 49.003906 43.65625 48.457031 C 43.65625 47.90625 44.101562 47.464844 44.648438 47.464844 Z M 44.648438 47.464844 "/>
<path style=" stroke:none;fill-rule:nonzero;fill:rgb(74.117649%,74.117649%,74.117649%);fill-opacity:0.995763;" d="M 54.734375 40.519531 L 54.902344 40.519531 C 54.992188 40.519531 55.066406 40.59375 55.066406 40.683594 L 55.066406 41.015625 C 55.066406 41.105469 54.992188 41.179688 54.902344 41.179688 L 54.734375 41.179688 C 54.644531 41.179688 54.570312 41.105469 54.570312 41.015625 L 54.570312 40.683594 C 54.570312 40.59375 54.644531 40.519531 54.734375 40.519531 Z M 54.734375 40.519531 "/>
</g>
</svg>
